src/app/components/golos-ui/Icon/assets/star.svg

<?xml version="1.0" encoding="UTF-8"?>
<svg viewBox="0 0 20 20" version="1.1" xmlns="http://www.w3.org/2000/svg" xmlns:xlink="http://www.w3.org/1999/xlink">
    <g stroke="none" stroke-width="1" fill="currentColor" fill-rule="evenodd">
        <path d="M5.05285215,20 C4.64541721,19.9799197 4.24154777,19.8356287 3.88576831,19.5671589 C3.11669372,18.9868184 2.80954832,18.0050032 3.10333278,17.0659568 L4.33836046,13.1178799 C4.41782291,12.863986 4.33144559,12.5879367 4.12356964,12.4310638 L0.890104411,9.99097149 C0.343021334,9.57811774 0.0297615167,8.96070294 0,8.29856627 L1.38794159e-16,8.09001792 C0.00911086148,7.88622886 0.0449506928,7.67984324 0.108919026,7.47536433 C0.403836433,6.53246308 1.20744632,5.9231907 2.15607322,5.9231907 L6.15283112,5.9231907 C6.4178622,5.9231907 6.63866936,5.76469466 6.71539711,5.51944376 L7.94995598,1.54730433 C8.24417018,0.606756573 9.04824888,0 9.9988682,0 C10.9494875,0 11.7535272,0.606756573 12.0473116,1.54584354 L13.2828081,5.52090455 C13.359067,5.76469466 13.5798351,5.92315012 13.8448662,5.92315012 L17.841546,5.92315012 C18.7901729,5.92315012 19.5937437,6.53246308 19.8887392,7.47536433 C20.1848677,8.42195815 19.8782302,9.40941359 19.1075539,9.99097149 L16.902803,11.6547741 C16.5536996,11.918082 16.0652048,11.8377789 15.8116204,11.4752588 C15.5579969,11.1126981 15.6353888,10.6053161 15.9844141,10.3418458 L18.1891649,8.67804327 C18.5142421,8.43279237 18.4348578,8.07932105 18.4027837,7.97686266 C18.3711393,7.87574333 18.2372565,7.54596933 17.8415069,7.54596933 L13.8448272,7.54596933 C12.9049513,7.54596933 12.0817688,6.93312612 11.7963837,6.02094209 L10.5608482,2.04588107 C10.4380994,1.6534147 10.0996222,1.62281921 9.99879007,1.62281921 C9.89799699,1.62281921 9.55948072,1.6534147 9.43626314,2.04734186 L8.2016652,6.01952187 C7.91585042,6.93316669 7.09266792,7.5460099 6.15275298,7.5460099 L2.15603416,7.5460099 C1.76032368,7.5460099 1.62640172,7.87578391 1.59475738,7.97690324 C1.56268331,8.07936163 1.48333806,8.43283294 1.80837619,8.67808384 L5.04184142,11.1182167 C5.79907868,11.6896302 6.11352963,12.6947369 5.82423788,13.6193377 L4.58917113,17.5674146 C4.46599262,17.9613417 4.72250709,18.1927151 4.80404009,18.2543119 C4.88557309,18.3158275 5.17670099,18.4977368 5.49935602,18.2542713 L8.73274312,15.8142196 C9.49001945,15.2427655 10.5075607,15.2428061 11.2647589,15.8142602 L14.498185,18.2542713 C14.8207229,18.4977774 15.1119289,18.3158275 15.1934619,18.2543119 C15.275034,18.1927557 15.5315484,17.9613417 15.4083309,17.5674552 L14.5628801,14.8646636 C14.4295442,14.4384367 14.6541018,13.9807216 15.0644624,13.8421897 C15.4747058,13.703739 15.9154997,13.936979 16.0487966,14.3631653 L16.8942864,17.0659568 C17.1880318,18.0050032 16.8809255,18.9868589 16.1118509,19.5671589 C15.7561455,19.8356103 15.3523535,19.9798826 14.9449561,20 L14.7468218,20 C14.3393932,19.9798813 13.9355672,19.8355929 13.5798351,19.5671589 L10.346409,17.1271072 C10.1384549,16.970072 9.85904711,16.9701532 9.65117117,17.1270667 L6.41770594,19.5671589 C6.06196262,19.8356287 5.65806244,19.9799197 5.25056082,20 L5.05285215,20 Z"></path>
    </g>
</svg>

<svg viewBox="0 0 20 20" xmlns="http://www.w3.org/2000/svg"><path d="M5.053 20a2.105 2.105 0 0 1-1.167-.433c-.77-.58-1.076-1.562-.783-2.501l1.235-3.948a.626.626 0 0 0-.214-.687L.89 9.991A2.231 2.231 0 0 1 0 8.299V8.09c.01-.204.045-.41.109-.615.295-.943 1.098-1.552 2.047-1.552h3.997a.575.575 0 0 0 .562-.404L7.95 1.547C8.244.607 9.048 0 9.999 0c.95 0 1.755.607 2.048 1.546l1.236 3.975a.575.575 0 0 0 .562.402h3.997c.948 0 1.752.61 2.047 1.552.296.947-.01 1.934-.781 2.516l-2.205 1.664a.763.763 0 0 1-1.091-.18.832.832 0 0 1 .172-1.133l2.205-1.664c.325-.245.246-.599.214-.701-.032-.101-.166-.431-.561-.431h-3.997c-.94 0-1.763-.613-2.049-1.525l-1.235-3.975a.573.573 0 0 0-.562-.423c-.101 0-.44.03-.563.424L8.202 6.02a2.148 2.148 0 0 1-2.05 1.526H2.157c-.396 0-.53.33-.561.43-.032.103-.112.457.213.702l3.234 2.44a2.28 2.28 0 0 1 .782 2.501L4.59 17.567a.607.607 0 0 0 .215.687.557.557 0 0 0 .695 0l3.234-2.44a2.084 2.084 0 0 1 2.532 0l3.233 2.44a.557.557 0 0 0 .695 0 .607.607 0 0 0 .215-.687l-.845-2.702a.818.818 0 0 1 .501-1.023.776.776 0 0 1 .985.521l.845 2.703c.294.939-.013 1.92-.782 2.501-.356.269-.76.413-1.167.433h-.198a2.105 2.105 0 0 1-1.167-.433l-3.234-2.44a.572.572 0 0 0-.695 0l-3.233 2.44c-.356.269-.76.413-1.167.433h-.198z" fill="currentColor" fill-rule="evenodd"/></svg>
